img/intro/pattern.svg

<svg width="1284" height="1561" fill="none" xmlns="http://www.w3.org/2000/svg"><path d="M1008.78 511.729c11.59.157 19.5-11.688 14.9-22.336L884.481 166.671a25.996 25.996 0 0 0-22.135-15.644l-63.637-4.264c-11.922-.799-20.481 11.278-15.778 22.262L922.56 495.118a26 26 0 0 0 23.55 15.764l62.67.847Z" fill="url(#a)" fill-opacity=".1" style="mix-blend-mode:lighten"/><path d="M647.601 651.615 508.397 328.892a25.5 25.5 0 0 0-21.71-15.343l-63.636-4.264c-11.55-.774-19.841 10.925-15.285 21.566l139.628 326.094a25.501 25.501 0 0 0 23.097 15.46l62.668.847c11.232.152 18.891-11.322 14.442-21.637Z" stroke="url(#b)"/><path d="M1103.57 1075.73c11.59.14 19.48-11.69 14.89-22.33L979.253 730.664a26.002 26.002 0 0 0-22.175-15.647l-63.97-4.189c-11.913-.781-20.453 11.289-15.754 22.263L1016.99 1059.2a26.002 26.002 0 0 0 23.58 15.77l63 .76Z" fill="url(#c)" fill-opacity=".1" style="mix-blend-mode:lighten"/><path d="M727.949 1237.76c11.585.14 19.474-11.7 14.885-22.34L603.627 892.687a26 26 0 0 0-22.175-15.646l-63.97-4.19c-11.913-.78-20.453 11.289-15.754 22.264L641.36 1221.23a25.987 25.987 0 0 0 23.586 15.76l63.003.77Z" fill="url(#d)" fill-opacity=".1" style="mix-blend-mode:lighten"/><path d="M1003.24 1476.19 804.1 1016.17a25.503 25.503 0 0 0-21.124-15.27l-64.85-5.814c-11.7-1.05-20.269 10.794-15.617 21.574l196.73 456.09a25.501 25.501 0 0 0 19.766 15.14l67.789 9.8c12.004 1.73 21.256-10.37 16.446-21.5Z" stroke="url(#e)"/><path d="M817.014 700.187 647.333 308.434a25.501 25.501 0 0 0-22.64-15.354l-62.57-1.865c-11.338-.338-19.187 11.217-14.695 21.632l167.545 388.428a25.499 25.499 0 0 0 21.386 15.319l65.199 5.204c11.653.93 20.103-10.884 15.456-21.611Z" stroke="url(#f)"/><path d="M425.893 884.32c12.029.96 20.751-11.235 15.955-22.309L272.167 470.258a26 26 0 0 0-23.084-15.654l-62.57-1.865c-11.704-.349-19.806 11.579-15.169 22.33l167.545 388.427a25.998 25.998 0 0 0 21.805 15.62l65.199 5.204Z" fill="url(#g)" fill-opacity=".1"/><path d="m1141.23 763.158-85.29-197.736a19.52 19.52 0 0 0-16.93-11.752l-67.836-3.424c-11.467-.579-19.561 11.076-15.013 21.619l88.819 205.925a15.509 15.509 0 0 0 13.46 9.341l63.9 3.226c14.43.728 24.61-13.935 18.89-27.199Z" stroke="url(#h)"/><path d="M746.688 952.88c14.796.746 25.24-14.293 19.372-27.896l-85.291-197.737a20.002 20.002 0 0 0-17.356-12.053l-67.839-3.424c-11.838-.597-20.193 11.434-15.499 22.317l88.824 205.925a16 16 0 0 0 13.885 9.642l63.904 3.226Z" fill="url(#i)" fill-opacity=".1" style="mix-blend-mode:lighten"/><path d="m940.633 642.393-85.292-197.737a19.503 19.503 0 0 0-16.922-11.752l-67.839-3.424c-11.468-.578-19.562 11.077-15.014 21.62l88.823 205.924a15.502 15.502 0 0 0 13.452 9.342l63.903 3.225c14.427.728 24.61-13.935 18.889-27.198Z" stroke="url(#j)"/><path d="M565.008 804.416 479.716 606.68a19.499 19.499 0 0 0-16.922-11.752l-67.839-3.424c-11.468-.579-19.562 11.076-15.014 21.619l88.823 205.925a15.503 15.503 0 0 0 13.452 9.341l63.903 3.226c14.427.728 24.61-13.935 18.889-27.199Z" stroke="url(#k)"/><path d="m357.894 1007.93-85.291-197.735a19.503 19.503 0 0 0-16.923-11.752l-67.839-3.424c-11.467-.578-19.561 11.077-15.014 21.62l88.824 205.921a15.471 15.471 0 0 0 13.451 9.34l63.904 3.23c14.427.73 24.609-13.93 18.888-27.2Z" stroke="url(#l)"/><path d="m936.379 976.815-85.292-197.737a19.503 19.503 0 0 0-16.922-11.752l-67.839-3.424c-11.468-.579-19.562 11.077-15.014 21.62l88.824 205.924a15.505 15.505 0 0 0 13.451 9.344l63.903 3.22c14.427.73 24.61-13.932 18.889-27.195Z" stroke="url(#m)"/><path d="m560.754 1138.84-85.292-197.738a19.499 19.499 0 0 0-16.922-11.752l-67.839-3.424c-11.468-.579-19.562 11.076-15.014 21.619l88.824 205.925a15.505 15.505 0 0 0 13.451 9.34l63.903 3.23c14.427.72 24.61-13.94 18.889-27.2Z" stroke="url(#n)"/><path d="m819.116 360.674-85.292-197.736a19.498 19.498 0 0 0-16.922-11.752l-67.839-3.424c-11.467-.579-19.561 11.076-15.014 21.619l88.824 205.925a15.5 15.5 0 0 0 13.451 9.341l63.904 3.225c14.426.729 24.609-13.934 18.888-27.198Z" stroke="url(#o)"/><path d="M424.577 550.395c14.797.747 25.241-14.292 19.373-27.896l-85.292-197.736a19.998 19.998 0 0 0-17.356-12.053l-67.839-3.424c-11.837-.598-20.192 11.433-15.498 22.316l88.824 205.925a16 16 0 0 0 13.885 9.643l63.903 3.225Z" fill="url(#p)" fill-opacity=".1"/><defs><linearGradient id="i" x1="643.121" y1="712.522" x2="730.378" y2="946.157" gradientUnits="userSpaceOnUse"><stop stop-color="#1BA4D8"/><stop offset="1" stop-color="#fff" stop-opacity="0"/></linearGradient><linearGradient id="a" x1="805.501" y1="143.985" x2="965.069" y2="516.506" gradientUnits="userSpaceOnUse"><stop stop-color="#1BA4D8"/><stop offset="1" stop-color="#fff" stop-opacity="0"/></linearGradient><linearGradient id="c" x1="930.089" y1="717.479" x2="1079.82" y2="1090.46" gradientUnits="userSpaceOnUse"><stop stop-color="#1BA4D8"/><stop offset="1" stop-color="#fff" stop-opacity="0"/></linearGradient><linearGradient id="d" x1="532.246" y1="869.931" x2="682.229" y2="1244.58" gradientUnits="userSpaceOnUse"><stop stop-color="#1BA4D8"/><stop offset="1" stop-color="#fff" stop-opacity="0"/></linearGradient><linearGradient id="e" x1="694.438" y1="975.129" x2="986.499" y2="1663.96" gradientUnits="userSpaceOnUse"><stop stop-color="#1BA4D8"/><stop offset="1" stop-color="#fff" stop-opacity="0"/></linearGradient><linearGradient id="f" x1="564.263" y1="287.373" x2="821.841" y2="887.812" gradientUnits="userSpaceOnUse"><stop stop-color="#1BA4D8"/><stop offset="1" stop-color="#fff" stop-opacity="0"/></linearGradient><linearGradient id="g" x1="213.678" y1="461.06" x2="398.265" y2="882.926" gradientUnits="userSpaceOnUse"><stop stop-color="#1BA4D8"/><stop offset=".993" stop-color="#fff" stop-opacity="0"/></linearGradient><linearGradient id="h" x1="969.416" y1="522.682" x2="1105.88" y2="897.143" gradientUnits="userSpaceOnUse"><stop stop-color="#1BA4D8"/><stop offset="1" stop-color="#fff" stop-opacity="0"/></linearGradient><linearGradient id="b" x1="416.055" y1="288.683" x2="605.857" y2="717.961" gradientUnits="userSpaceOnUse"><stop stop-color="#1BA4D8"/><stop offset="1" stop-color="#fff" stop-opacity="0"/></linearGradient><linearGradient id="j" x1="770.537" y1="379.109" x2="921.917" y2="742.616" gradientUnits="userSpaceOnUse"><stop stop-color="#1BA4D8"/><stop offset="1" stop-color="#fff" stop-opacity="0"/></linearGradient><linearGradient id="k" x1="380.854" y1="581.224" x2="514.354" y2="891.749" gradientUnits="userSpaceOnUse"><stop stop-color="#1BA4D8"/><stop offset="1" stop-color="#fff" stop-opacity="0"/></linearGradient><linearGradient id="l" x1="173.741" y1="784.74" x2="307.241" y2="1095.26" gradientUnits="userSpaceOnUse"><stop stop-color="#1BA4D8"/><stop offset="1" stop-color="#fff" stop-opacity="0"/></linearGradient><linearGradient id="m" x1="768.359" y1="731.064" x2="935.983" y2="1082.22" gradientUnits="userSpaceOnUse"><stop stop-color="#1BA4D8"/><stop offset="1" stop-color="#fff" stop-opacity="0"/></linearGradient><linearGradient id="n" x1="372.279" y1="882.739" x2="526.628" y2="1285.25" gradientUnits="userSpaceOnUse"><stop stop-color="#1BA4D8"/><stop offset="1" stop-color="#fff" stop-opacity="0"/></linearGradient><linearGradient id="o" x1="684.972" y1="141.974" x2="819.18" y2="464.006" gradientUnits="userSpaceOnUse"><stop stop-color="#1BA4D8"/><stop offset="1" stop-color="#fff" stop-opacity="0"/></linearGradient><linearGradient id="p" x1="304.514" y1="306.667" x2="406.752" y2="557.003" gradientUnits="userSpaceOnUse"><stop stop-color="#1BA4D8"/><stop offset="1" stop-color="#fff" stop-opacity="0"/></linearGradient></defs></svg>

<svg width="1284" height="1561" viewBox="0 0 1284 1561" fill="none" xmlns="http://www.w3.org/2000/svg">
<g style="mix-blend-mode:lighten">
<path d="M1008.78 511.729C1020.37 511.886 1028.28 500.041 1023.68 489.393L884.481 166.671C880.62 157.718 872.074 151.678 862.346 151.027L798.709 146.763C786.787 145.964 778.228 158.041 782.931 169.025L922.56 495.118C926.605 504.565 935.834 510.743 946.11 510.882L1008.78 511.729Z" fill="url(#paint0_linear_401_3167)" fill-opacity="0.1"/>
</g>
<path d="M647.601 651.615L508.397 328.892C504.61 320.112 496.228 314.188 486.687 313.549L423.051 309.285C411.501 308.511 403.21 320.21 407.766 330.851L547.394 656.945C551.362 666.21 560.414 672.269 570.491 672.405L633.159 673.252C644.391 673.404 652.05 661.93 647.601 651.615Z" stroke="url(#paint1_linear_401_3167)"/>
<g style="mix-blend-mode:lighten">
<path d="M1103.57 1075.73C1115.16 1075.87 1123.05 1064.04 1118.46 1053.4L979.253 730.664C975.386 721.699 966.821 715.655 957.078 715.017L893.108 710.828C881.195 710.047 872.655 722.117 877.354 733.091L1016.99 1059.2C1021.04 1068.66 1030.28 1074.84 1040.57 1074.97L1103.57 1075.73Z" fill="url(#paint2_linear_401_3167)" fill-opacity="0.1"/>
</g>
<g style="mix-blend-mode:lighten">
<path d="M727.949 1237.76C739.534 1237.9 747.423 1226.06 742.834 1215.42L603.627 892.687C599.76 883.722 591.195 877.679 581.452 877.041L517.482 872.851C505.569 872.071 497.029 884.14 501.728 895.115L641.36 1221.23C645.41 1230.69 654.658 1236.87 664.946 1236.99L727.949 1237.76Z" fill="url(#paint3_linear_401_3167)" fill-opacity="0.1"/>
</g>
<path d="M1003.24 1476.19L804.1 1016.17C800.388 1007.59 792.283 1001.74 782.976 1000.9L718.126 995.086C706.426 994.036 697.857 1005.88 702.509 1016.66L899.239 1472.75C902.749 1480.89 910.233 1486.62 919.005 1487.89L986.794 1497.69C998.798 1499.42 1008.05 1487.32 1003.24 1476.19Z" stroke="url(#paint4_linear_401_3167)"/>
<path d="M817.014 700.187L647.333 308.434C643.402 299.359 634.579 293.375 624.693 293.08L562.123 291.215C550.785 290.877 542.936 302.432 547.428 312.847L714.973 701.275C718.714 709.948 726.943 715.843 736.359 716.594L801.558 721.798C813.211 722.728 821.661 710.914 817.014 700.187Z" stroke="url(#paint5_linear_401_3167)"/>
<path d="M425.893 884.32C437.922 885.28 446.644 873.085 441.848 862.011L272.167 470.258C268.159 461.005 259.162 454.904 249.083 454.604L186.513 452.739C174.809 452.39 166.707 464.318 171.344 475.069L338.889 863.496C342.703 872.34 351.094 878.35 360.694 879.116L425.893 884.32Z" fill="url(#paint6_linear_401_3167)" fill-opacity="0.1"/>
<path d="M1141.23 763.158L1055.94 565.422C1052.99 558.601 1046.43 554.045 1039.01 553.67L971.174 550.246C959.707 549.667 951.613 561.322 956.161 571.865L1044.98 777.79C1047.32 783.212 1052.54 786.834 1058.44 787.131L1122.34 790.357C1136.77 791.085 1146.95 776.422 1141.23 763.158Z" stroke="url(#paint7_linear_401_3167)"/>
<g style="mix-blend-mode:lighten">
<path d="M746.688 952.88C761.484 953.626 771.928 938.587 766.06 924.984L680.769 727.247C677.751 720.252 671.021 715.578 663.413 715.194L595.574 711.77C583.736 711.173 575.381 723.204 580.075 734.087L668.899 940.012C671.313 945.608 676.697 949.347 682.784 949.654L746.688 952.88Z" fill="url(#paint8_linear_401_3167)" fill-opacity="0.1"/>
</g>
<path d="M940.633 642.393L855.341 444.656C852.399 437.836 845.837 433.279 838.419 432.904L770.58 429.48C759.112 428.902 751.018 440.557 755.566 451.1L844.389 657.024C846.728 662.446 851.944 666.068 857.841 666.366L921.744 669.591C936.171 670.319 946.354 655.656 940.633 642.393Z" stroke="url(#paint9_linear_401_3167)"/>
<path d="M565.008 804.416L479.716 606.68C476.774 599.859 470.212 595.302 462.794 594.928L394.955 591.504C383.487 590.925 375.393 602.58 379.941 613.123L468.764 819.048C471.103 824.469 476.319 828.091 482.216 828.389L546.119 831.615C560.546 832.343 570.729 817.68 565.008 804.416Z" stroke="url(#paint10_linear_401_3167)"/>
<path d="M357.894 1007.93L272.603 810.195C269.661 803.375 263.099 798.818 255.68 798.443L187.841 795.019C176.374 794.441 168.28 806.096 172.827 816.639L261.651 1022.56C263.99 1027.99 269.205 1031.61 275.102 1031.9L339.006 1035.13C353.433 1035.86 363.615 1021.2 357.894 1007.93Z" stroke="url(#paint11_linear_401_3167)"/>
<path d="M936.379 976.815L851.087 779.078C848.145 772.258 841.583 767.701 834.165 767.326L766.326 763.902C754.858 763.323 746.764 774.979 751.312 785.522L840.136 991.446C842.474 996.868 847.69 1000.49 853.587 1000.79L917.49 1004.01C931.917 1004.74 942.1 990.078 936.379 976.815Z" stroke="url(#paint12_linear_401_3167)"/>
<path d="M560.754 1138.84L475.462 941.102C472.52 934.281 465.958 929.724 458.54 929.35L390.701 925.926C379.233 925.347 371.139 937.002 375.687 947.545L464.511 1153.47C466.849 1158.89 472.065 1162.51 477.962 1162.81L541.865 1166.04C556.292 1166.76 566.475 1152.1 560.754 1138.84Z" stroke="url(#paint13_linear_401_3167)"/>
<path d="M819.116 360.674L733.824 162.938C730.882 156.117 724.321 151.56 716.902 151.186L649.063 147.762C637.596 147.183 629.502 158.838 634.049 169.381L722.873 375.306C725.211 380.727 730.427 384.349 736.324 384.647L800.228 387.872C814.654 388.601 824.837 373.938 819.116 360.674Z" stroke="url(#paint14_linear_401_3167)"/>
<path d="M424.577 550.395C439.374 551.142 449.818 536.103 443.95 522.499L358.658 324.763C355.641 317.767 348.911 313.094 341.302 312.71L273.463 309.286C261.626 308.688 253.271 320.719 257.965 331.602L346.789 537.527C349.203 543.124 354.587 546.863 360.674 547.17L424.577 550.395Z" fill="url(#paint15_linear_401_3167)" fill-opacity="0.1"/>
<defs>
<linearGradient id="paint0_linear_401_3167" x1="805.501" y1="143.985" x2="965.069" y2="516.506" gradientUnits="userSpaceOnUse">
<stop stop-color="#1BA4D8"/>
<stop offset="1" stop-color="white" stop-opacity="0"/>
</linearGradient>
<linearGradient id="paint1_linear_401_3167" x1="416.055" y1="288.683" x2="605.857" y2="717.961" gradientUnits="userSpaceOnUse">
<stop stop-color="#1BA4D8"/>
<stop offset="1" stop-color="white" stop-opacity="0"/>
</linearGradient>
<linearGradient id="paint2_linear_401_3167" x1="930.089" y1="717.479" x2="1079.82" y2="1090.46" gradientUnits="userSpaceOnUse">
<stop stop-color="#1BA4D8"/>
<stop offset="1" stop-color="white" stop-opacity="0"/>
</linearGradient>
<linearGradient id="paint3_linear_401_3167" x1="532.246" y1="869.931" x2="682.229" y2="1244.58" gradientUnits="userSpaceOnUse">
<stop stop-color="#1BA4D8"/>
<stop offset="1" stop-color="white" stop-opacity="0"/>
</linearGradient>
<linearGradient id="paint4_linear_401_3167" x1="694.438" y1="975.129" x2="986.499" y2="1663.96" gradientUnits="userSpaceOnUse">
<stop stop-color="#1BA4D8"/>
<stop offset="1" stop-color="white" stop-opacity="0"/>
</linearGradient>
<linearGradient id="paint5_linear_401_3167" x1="564.263" y1="287.373" x2="821.841" y2="887.812" gradientUnits="userSpaceOnUse">
<stop stop-color="#1BA4D8"/>
<stop offset="1" stop-color="white" stop-opacity="0"/>
</linearGradient>
<linearGradient id="paint6_linear_401_3167" x1="213.678" y1="461.06" x2="398.265" y2="882.926" gradientUnits="userSpaceOnUse">
<stop stop-color="#1BA4D8"/>
<stop offset="0.992708" stop-color="white" stop-opacity="0"/>
</linearGradient>
<linearGradient id="paint7_linear_401_3167" x1="969.416" y1="522.682" x2="1105.88" y2="897.143" gradientUnits="userSpaceOnUse">
<stop stop-color="#1BA4D8"/>
<stop offset="1" stop-color="white" stop-opacity="0"/>
</linearGradient>
<linearGradient id="paint8_linear_401_3167" x1="643.121" y1="712.522" x2="730.378" y2="946.157" gradientUnits="userSpaceOnUse">
<stop stop-color="#1BA4D8"/>
<stop offset="1" stop-color="white" stop-opacity="0"/>
</linearGradient>
<linearGradient id="paint9_linear_401_3167" x1="770.537" y1="379.109" x2="921.917" y2="742.616" gradientUnits="userSpaceOnUse">
<stop stop-color="#1BA4D8"/>
<stop offset="1" stop-color="white" stop-opacity="0"/>
</linearGradient>
<linearGradient id="paint10_linear_401_3167" x1="380.854" y1="581.224" x2="514.354" y2="891.749" gradientUnits="userSpaceOnUse">
<stop stop-color="#1BA4D8"/>
<stop offset="1" stop-color="white" stop-opacity="0"/>
</linearGradient>
<linearGradient id="paint11_linear_401_3167" x1="173.741" y1="784.74" x2="307.241" y2="1095.26" gradientUnits="userSpaceOnUse">
<stop stop-color="#1BA4D8"/>
<stop offset="1" stop-color="white" stop-opacity="0"/>
</linearGradient>
<linearGradient id="paint12_linear_401_3167" x1="768.359" y1="731.064" x2="935.983" y2="1082.22" gradientUnits="userSpaceOnUse">
<stop stop-color="#1BA4D8"/>
<stop offset="1" stop-color="white" stop-opacity="0"/>
</linearGradient>
<linearGradient id="paint13_linear_401_3167" x1="372.279" y1="882.739" x2="526.628" y2="1285.25" gradientUnits="userSpaceOnUse">
<stop stop-color="#1BA4D8"/>
<stop offset="1" stop-color="white" stop-opacity="0"/>
</linearGradient>
<linearGradient id="paint14_linear_401_3167" x1="684.972" y1="141.974" x2="819.18" y2="464.006" gradientUnits="userSpaceOnUse">
<stop stop-color="#1BA4D8"/>
<stop offset="1" stop-color="white" stop-opacity="0"/>
</linearGradient>
<linearGradient id="paint15_linear_401_3167" x1="304.514" y1="306.667" x2="406.752" y2="557.003" gradientUnits="userSpaceOnUse">
<stop stop-color="#1BA4D8"/>
<stop offset="1" stop-color="white" stop-opacity="0"/>
</linearGradient>
</defs>
</svg>
